web/ui/src/components/theme/input/svgs/visible.svg

<svg height="24" viewBox="0 0 24 24" width="24" xmlns="http://www.w3.org/2000/svg"><g fill="none"><path d="m0 0h24v24h-24z" fill="#000" opacity="0"/><path d="m11.985202 9.11600334c-1.3821349 0-2.43907427 1.05693936-2.43907427 2.43907426s1.05693937 2.4390743 2.43907427 2.4390743 2.4390743-1.0569154 2.4390743-2.4390743c0-1.3821588-1.0569393-2.43907426-2.4390743-2.43907426zm0 6.50419816c-2.27646452 0-4.06512381-1.7886593-4.06512381-4.0651238 0-2.27646458 1.78865929-4.06512388 4.06512381-4.06512388 2.2764646 0 4.0651239 1.7886593 4.0651239 4.06512388 0 2.2764645-1.7886593 4.0651238-4.0651239 4.0651238zm0-10.1628216c-4.06512381 0-7.56113751 2.52037917-8.94327243 6.0976978 1.38213492 3.5773185 4.87814862 6.0976977 8.94327243 6.0976977 4.0651239 0 7.5611376-2.5203791 8.9432725-6.0976977-1.3821349-3.57731863-4.8781486-6.0976978-8.9432725-6.0976978z" fill="#999"/></g></svg>

<?xml version="1.0" encoding="UTF-8"?>
<svg width="24px" height="24px" viewBox="0 0 24 24" version="1.1" xmlns="http://www.w3.org/2000/svg" xmlns:xlink="http://www.w3.org/1999/xlink">
    <title>密码可见备份</title>
    <g id="页面-1" stroke="none" stroke-width="1" fill="none" fill-rule="evenodd">
        <g id="系统设计规范" transform="translate(-1155.000000, -5358.000000)" fill-rule="nonzero">
            <g id="密码可见备份" transform="translate(1155.000000, 5358.000000)">
                <rect id="矩形" fill="#000000" opacity="0" x="0" y="0" width="24" height="24"></rect>
                <path d="M11.985202,9.11600334 C10.6030671,9.11600334 9.54612773,10.1729427 9.54612773,11.5550776 C9.54612773,12.9372125 10.6030671,13.9941519 11.985202,13.9941519 C13.3673369,13.9941519 14.4242763,12.9372365 14.4242763,11.5550776 C14.4242763,10.1729188 13.367337,9.11600334 11.985202,9.11600334 Z M11.985202,15.6202015 C9.70873748,15.6202015 7.92007819,13.8315422 7.92007819,11.5550777 C7.92007819,9.27861312 9.70873748,7.48995382 11.985202,7.48995382 C14.2616666,7.48995382 16.0503259,9.27861312 16.0503259,11.5550777 C16.0503259,13.8315422 14.2616666,15.6202015 11.985202,15.6202015 Z M11.985202,5.4573799 C7.92007819,5.4573799 4.42406449,7.97775907 3.04192957,11.5550777 C4.42406449,15.1323962 7.92007819,17.6527754 11.985202,17.6527754 C16.0503259,17.6527754 19.5463396,15.1323963 20.9284745,11.5550777 C19.5463396,7.97775907 16.0503259,5.4573799 11.985202,5.4573799 Z" id="形状" fill="#999999"></path>
            </g>
        </g>
    </g>
</svg>
